icon/fa/truck-medical.svg

<svg xmlns="http://www.w3.org/2000/svg" viewBox="0 0 640 512"><!--! Font Awesome Free 6.1.2 by @fontawesome - https://fontawesome.com License - https://fontawesome.com/license/free (Icons: CC BY 4.0, Fonts: SIL OFL 1.1, Code: MIT License) Copyright 2022 Fonticons, Inc.--><path d="M368 0c26.5 0 48 21.49 48 48v48h50.7c17 0 32.4 6.7 45.3 18.7l77.3 77.3c12 12 18.7 28.3 18.7 45.3V352c17.7 0 32 14.3 32 32s-14.3 32-32 32h-32c0 53-43 96-96 96-53.9 0-96-43-96-96H256c0 53-43 96-96 96-53.9 0-96-43-96-96H48c-26.51 0-48-21.5-48-48V48C0 21.49 21.49 0 48 0h320zm48 160v96h128v-18.7L466.7 160H416zM160 368c-26.5 0-48 21.5-48 48s21.5 48 48 48 48-21.5 48-48-21.5-48-48-48zm320 96c26.5 0 48-21.5 48-48s-21.5-48-48-48-48 21.5-48 48 21.5 48 48 48zM112 176c0 8.8 7.2 16 16 16h48v48c0 8.8 7.2 16 16 16h32c8.8 0 16-7.2 16-16v-48h48c8.8 0 16-7.2 16-16v-32c0-8.8-7.2-16-16-16h-48V80c0-8.84-7.2-16-16-16h-32c-8.8 0-16 7.16-16 16v48h-48c-8.8 0-16 7.2-16 16v32z"/></svg>

<svg xmlns="http://www.w3.org/2000/svg" viewBox="0 0 640 512" height="1em" width="1em">
<!--! Font Awesome Free 6.1.2 by @fontawesome - https://fontawesome.com License - https://fontawesome.com/license/free (Icons: CC BY 4.0, Fonts: SIL OFL 1.1, Code: MIT License) Copyright 2022 Fonticons, Inc.-->
  <path d="M368 0C394.5 0 416 21.49 416 48V96H466.7C483.7 96 499.1 102.7 512 114.7L589.3 192C601.3 204 608 220.3 608 237.3V352C625.7 352 640 366.3 640 384C640 401.7 625.7 416 608 416H576C576 469 533 512 480 512C426.1 512 384 469 384 416H256C256 469 213 512 160 512C106.1 512 64 469 64 416H48C21.49 416 0 394.5 0 368V48C0 21.49 21.49 0 48 0H368zM416 160V256H544V237.3L466.7 160H416zM160 368C133.5 368 112 389.5 112 416C112 442.5 133.5 464 160 464C186.5 464 208 442.5 208 416C208 389.5 186.5 368 160 368zM480 464C506.5 464 528 442.5 528 416C528 389.5 506.5 368 480 368C453.5 368 432 389.5 432 416C432 442.5 453.5 464 480 464zM112 176C112 184.8 119.2 192 128 192H176V240C176 248.8 183.2 256 192 256H224C232.8 256 240 248.8 240 240V192H288C296.8 192 304 184.8 304 176V144C304 135.2 296.8 128 288 128H240V80C240 71.16 232.8 64 224 64H192C183.2 64 176 71.16 176 80V128H128C119.2 128 112 135.2 112 144V176z"/>
</svg>
